!!!!SEGMENT: pl-kk--kk-i-53_anonim--agnus-dei.krn
!!!cenid: 16xx:1339
!!!COM: Anonim
!!!COM-rismID: pe30004985
!!!CDT:
!!!CNT:
!!!OTL: Agnus Dei
!!!PDT:
!!!AGN: Sacred; Mass section
!!!SMS-siglum: PL-Kk
!!!SMS-shelfmark: Kk.I.53
!!!SMS-shelfwork: W
!!!SMS-variant:
!!!SMS-altvar:
!!!NIFC-rismSourceID: 1001154618
!!!NIFC-islandoraID: pl-kk:2752
!!!URL-pdf-islandora: https://repozytorium.nifc.pl/islandora/object/pl-kk%3A2752/datastream/PDF/view
!!!URL-scan: https://polish.musicsources.pl/pl/lokalizacje/galeria/rekopisy/6131 @EN{Scan on Polish Music Herritage in Open Access Website} @PL{Skany w portalu Dziedzictwo Muzyki Polskiej w otwartym dostępie}
!!!ONB-nifc: UWAGA: wg RISM obsada S, A, T (2), B
!!!AIN: 1 alto 1 empty 1 soprn 2 tenor
!!!key:
**kern	**text	**kern	**text	**kern	**text	**kern	**text	**kern	**text
*part5	*part5	*part4	*part4	*part3	*part3	*part2	*part2	*part1	*part1
*staff5	*staff5	*staff4	*staff4	*staff3	*staff3	*staff2	*staff2	*staff1	*staff1
*Iempty	*	*Itenor	*	*Itenor	*	*Ialto	*	*Isoprn	*
*I"[Bass]	*	*I"[Tenor 2]	*	*I"[Tenor 1]	*	*I"[Alto]	*	*I"[Soprano]	*
*I'[B]	*	*I'[T 2]	*	*I'[T 1]	*	*I'[A]	*	*I'[S]	*
*clefF4	*	*clefC4	*	*clefC4	*	*clefC3	*	*clefC1	*
*k[b-]	*	*k[b-]	*	*k[b-]	*	*k[b-]	*	*k[b-]	*
*F:	*	*F:	*	*F:	*	*F:	*	*F:	*
*M2/1	*	*M2/1	*	*M2/1	*	*M2/1	*	*M2/1	*
*met(c|)	*	*met(c|)	*	*met(c|)	*	*met(c|)	*	*met(c|)	*
=1-	=1-	=1-	=1-	=1-	=1-	=1-	=1-	=1-	=1-
2.F\	A-	2c\	A-	1.A	A-	1.f	A-	4cc\	A-
.	.	.	.	.	.	.	.	4b-\	.
.	.	2.F/	-gn(us)	.	.	.	.	4a\	.
4E\	.	.	.	.	.	.	.	4g\	.
2D/	.	.	.	.	.	.	.	2f/	-gn(us)
.	.	4G/	.	.	.	.	.	.	.
*	*	*	*	*	*	*	*	*	*ij
2AA/	-gn(us)	4A/	De-	2A/	-gn(us)	2e\	-gn(us)	2cc\	A-
.	.	4G/	.	.	.	.	.	.	.
=2-	=2-	=2-	=2-	=2-	=2-	=2-	=2-	=2-	=2-
2BB-/	a-	8F/L	.	4d\	De-	4d\	De-	2dd\	-gn(us)
*	*	*	*	*	*	*	*	*	*Xij
.	.	8G/J	.	.	.	.	.	.	.
.	.	8A\L	.	8c\L	.	4e\	.	.	.
.	.	8B-\J	.	8B-\J	.	.	.	.	.
2FF/	-gn(us)	2c\	-i	4c\	-i	1f	.	2cc\	De-
.	.	.	.	4F/	a-	.	.	.	.
*	*	*	*ij	*	*	*	*	*	*
1C	De-	4B-\	A-	4.G/	-gn(us)	.	.	1cc	-i
.	.	4A\	-gn(us)	.	.	.	.	.	.
.	.	.	.	16A/LL	.	.	.	.	.
.	.	.	.	16B-/JJ	.	.	.	.	.
.	.	2G/	De-	2c\	De-	2e\	.	.	.
=3-	=3-	=3-	=3-	=3-	=3-	=3-	=3-	=3-	=3-
!	!	!LO:TX:a:t=P:problem=kreska pseudotaktowa	!	!	!	!	!	!	!
1FF	-i	1A	-i	1c	-i	1f	-i	4r	.
*	*	*	*Xij	*	*	*	*	*	*
.	.	.	.	.	.	.	.	4f/	qui
.	.	.	.	.	.	.	.	4cc\	tol-
!	!	!	!	!	!	!	!	!LO:TX:a:t=P:problem=znak "+" nad nutą	!
.	.	.	.	.	.	.	.	8cc\	-liſ
.	.	.	.	.	.	.	.	8cc\	pec-
4r	.	4r	.	0r	.	0r	.	2dd\	-ca-
4BB-/	q(u)i	4BB-/	q(u)i	.	.	.	.	.	.
!	!	!LO:N:vis=8	!	!	!	!	!	!	!
4F\	tol-	4F/	tol-	.	.	.	.	4cc\	.
8F\	-lis	8F/	-liſ	.	.	.	.	2ff\	-ta
8F\	pec-	8F/	pec-	.	.	.	.	.	.
=4-	=4-	=4-	=4-	=4-	=4-	=4-	=4-	=4-	=4-
2G\	-ca-	2G/	-ca-	.	.	.	.	.	.
.	.	.	.	.	.	.	.	4ee\	.
4F\	-ta	4F/	-ta	.	.	.	.	2dd\	mun-
2B-\	mun-	2B-\	mun-	.	.	.	.	.	.
.	.	.	.	1r	.	2F/	qvi	8cc\L	.
.	.	.	.	.	.	.	.	16dd\L	.
.	.	.	.	.	.	.	.	16ee\JJ	.
4A\	.	4A\	.	.	.	.	.	2ff\	.
2G\	-di	2G/	.	.	.	4c\	tol-	.	.
.	.	.	.	.	.	8c\	-liſ	4ee\	.
.	.	.	.	.	.	8c\	pec-	.	.
=5-	=5-	=5-	=5-	=5-	=5-	=5-	=5-	=5-	=5-
!LO:TX:b:t=2	!	!	!	!	!	!	!	!	!
0r	.	4F/	-di	2BB-/	qvi	2d\	-ca-	2ff\	-di
.	.	2B-\	mun-	.	.	.	.	.	.
.	.	.	.	4F/	tol-	4c/	-ta	4r	.
.	.	4A\	.	8F/	-lis	2f\	mun-	4cc\	q(u)i
.	.	.	.	8F/	pec-	.	.	.	.
!	!	!LO:TX:a:t=P:problem=kreska pseudotaktowa	!	!	!	!	!	!	!
.	.	2B-\	-di	2G/	-ca-	.	.	4b-\	tol-
.	.	.	.	.	.	4e\	.	8g/	-liſ
.	.	.	.	.	.	.	.	8g/	pec-
!	!	!LO:LB:g=original	!	!	!	!	!	!LO:LB:g=original	!
.	.	4r	.	4F/	-ta	2d\	-di	4.a\	-ca-
.	.	4BB-/	q(u)i	2B-\	mun-	.	.	.	.
.	.	.	.	.	.	.	.	8b-\	.
=6-	=6-	=6-	=6-	=6-	=6-	=6-	=6-	=6-	=6-
!	!	!LO:N:vis=4	!	!	!	!	!	!	!
*	*ij	*	*	*	*	*	*	*	*
2FF/	q(u)i	8F/	tol-	.	.	8c\L	mun-	2.cc\	.
.	.	8F/	-liſ	.	.	16d\L	.	.	.
.	.	.	.	.	.	16e\JJ	.	.	.
.	.	4F/	.	4A\	.	2f\	.	.	.
4C/	tol-	2G/	pec-	4G/	.	.	.	.	.
8C/	-lis	.	.	2c\	.	4e\	.	4g/	-ta
!LO:N:vis=4	!	!	!	!	!	!	!	!	!
8C/	pec-	.	.	.	.	.	.	.	.
!LO:LB:g=original	!	!	!	!	!	!	!	!	!
2D/	-ca-	4F/	-ca-	.	.	4f\	-di	2g,/	mun-
.	.	2B-\	-ta	4B-\	-di	4f\	q(u)i	.	.
4C/	-ta	.	.	2c\	.	4e\	tol-	2f/	-di
2F\	mun-	8A/	mun-	.	.	4c\	-liſ	.	.
.	.	8F/	-di	.	.	.	.	.	.
=7-	=7-	=7-	=7-	=7-	=7-	=7-	=7-	=7-	=7-
.	.	4c\	q(u)i	2C/	.	4d\	pec-	0r	.
4E\	.	8c\	tol-	.	.	4e\	-ca-	.	.
.	.	8c\	-lis	.	.	.	.	.	.
!	!	!	!	!	!	!LO:LB:g=original	!	!	!
8D/L	.	2d\	.	4r	.	2.f\	-ta	.	.
8BB-/	.	.	.	.	.	.	.	.	.
8D/	.	.	.	2B-\	pec-	.	.	.	.
8E/J	.	.	.	.	.	.	.	.	.
2F\	.	4c\	.	.	.	.	.	.	.
.	.	2f\	.	4A\	-ca-	4c/	mun-	.	.
!	!	!	!	!LO:LB:g=original	!	!	!	!	!
2C/	.	.	.	4G\	-ta	2c/	-di	.	.
.	.	4e\	.	2c\	mun-	.	.	.	.
=8-	=8-	=8-	=8-	=8-	=8-	=8-	=8-	=8-	=8-
2GG/	-di	2d\	.	.	.	2r	.	2r	.
*	*Xij	*	*	*	*	*	*	*	*
.	.	.	.	4B-\	.	.	.	.	.
2C/	Mi-	2c\	.	2c\	-di	4r	.	4r	.
.	.	.	.	.	.	8g\	Mi-	8cc\	Mi-
.	.	.	.	.	.	8d\	-ſe-	8g\	-ſe-
4GG/	-ſe-	0r	.	0r	.	8f\	-re-	8b-\	-re-
.	.	.	.	.	.	8f\	-re	8b-\	-re
4GG/	-re-	.	.	.	.	8f\	mi-	8b-\	Mi-
.	.	.	.	.	.	8f\	-ſe-	8b-\	-ſe-
!	!	!	!	!	!	!	!	!LO:TX:t=P:problem=mixed beam	!
4D\	-re	.	.	.	.	8e\L	-re-	8a\L	-re-
.	.	.	.	.	.	8d\	.	8g\	.
*	*ij	*	*	*	*	*	*	*	*
4F\	Mi-	.	.	.	.	8e\	.	8a\	.
.	.	.	.	.	.	8c\J	.	8f/J	.
=9-	=9-	=9-	=9-	=9-	=9-	=9-	=9-	=9-	=9-
4C/	-ſe-	.	.	.	.	8d\L	.	8g\L	.
.	.	.	.	.	.	8c\	.	8f\	.
4C/	-re-	.	.	.	.	8d\	.	8g\	.
.	.	.	.	.	.	8e\J	.	8a\J	.
8GG/	-re	.	.	.	.	8f\L	-re	8b-\L	.
*	*Xij	*	*	*	*	*	*	*	*
8GG/	.	.	.	.	.	8c\J	.	8a\J	.
4GG/	.	.	.	.	.	2f\	no-	8b-\L	.
.	.	.	.	.	.	.	.	8g\J	.
!	!	!	!	!LO:N:vis=1	!	!	!	!	!
4FF/	.	1r	.	1r	.	.	.	4a\	.
8AA/L	no-	.	.	.	.	4e\	-bis	4a\	-re
8BB-/J	.	.	.	.	.	.	.	.	.
2C/	.	.	.	.	.	4f\	q(u)i	2g/	no-
!	!	!	!	!	!	!LO:TX:a:t=P:problem=wykreślony/zamazany tekst	!	!	!
.	.	.	.	.	.	2f\	.	.	.
=10-	=10-	=10-	=10-	=10-	=10-	=10-	=10-	=10-	=10-
4FF/	-bis	4r	.	4r	.	.	.	4f\	-bis
*	*	*	*	*	*	*	*	*custos:cc	*
2FF/	a-	2c\	A-	2A/	a-	4f\	.	2cc\	A-
.	.	.	.	.	.	2f\	.	.	.
!	!	!	!	!	!	!	!	!LO:LB:g=original	!
!	!	!	!	!	!	!	!	!LO:TX:a:t=P:problem=kreska pseudotaktowa	!
4FF/	-gn(us)	4c\	-gn(us)	4F/	-gn(us)	.	.	4cc\	-gn(us)
2BB-/	De-	8B-\L	De-	8F/L	De-	4f\	.	2dd\	De-
.	.	8c\J	.	8D/	.	.	.	.	.
.	.	8d\L	.	8F/	.	4f\	.	.	.
.	.	8B-\J	.	8G/J	.	.	.	.	.
4FF/	-i	4c\	i	4A\	-i	4f\	tol-	4cc\	-i
*	*	*custos:A	*	*	*	*	*	*	*
!LO:TX:a:t=P:problem=kreska pseudotaktowa	!	!	!	!	!	!	!	!	!
4F\	q(u)i	4A/	qvi	4A\	q(u)i	8f\	-liſ	4cc\	q(u)i
.	.	.	.	.	.	8f\	pec-	.	.
!	!	!LO:LB:g=original	!	!	!	!	!	!	!
=11-	=11-	=11-	=11-	=11-	=11-	=11-	=11-	=11-	=11-
4D\	tol-	4A/	tol-	4F/	tol-	4f\	-ca-	4dd\	tol-
!LO:LB:g=original	!	!	!	!	!	!	!	!	!
8D\	-liſ	8A\	-liſ	8F/	-liſ	4f\	-ta	8dd\	-liſ
8D\	pec-	8A\	pec-	8F/	pec-	.	.	8b-,\	pec-
!	!	!	!	!	!	!LO:LB:g=original	!	!	!
4D/	-ca-	4A/	-ca-	4F/	-ca-	2e\	mun-	4cc\	-ca-
!LO:TX:a:t=P:problem=kreska pseudotaktowa	!	!	!	!	!	!	!	!	!
4AA/	-[ta]	4c\	-ta	4F/	-ta	.	.	4cc\	-ta
2C/	mun-	2c\	mun-	2G/	mun-	4e\	-di	2cc\	mun-
.	.	.	.	.	.	4e\	q(u)i	.	.
4C/	-di	4c\	-di	4G/	-di	4f\	tol-	4cc\	-di
4C/	q(u)i	4c\	q(u)i	4c\	q(u)i	8f\	-liſ	4cc\	q(u)i
.	.	.	.	.	.	8f\	pec-	.	.
=12-	=12-	=12-	=12-	=12-	=12-	=12-	=12-	=12-	=12-
4F\	tol-	4c\	tol-	4A/	tol-	4c\	-ca-	4cc\	tol-
8F\	-lis	8c\	-liſ	8A/	-lis	4e\	-ta	8cc\	-liſ
8F\	pec-	8c\	pec-	8A/	pec-	.	.	8cc\	pec-
4F\	-ca-	8c\	-ca-	4F/	-ca-	1d,	mun-	4cc\	-ca-
.	.	8A/	-ta	.	.	.	.	.	.
4E\	-ta	2c\	mun-	4G/	-ta	.	.	4cc\	-ta
2G\	mun-	.	.	1G	mun-	.	.	1dd	mun-
!	!	!LO:N:acc=#	!	!	!	!	!	!	!
.	.	8Bn\L	.	.	.	.	.	.	.
.	.	8A\J	.	.	.	.	.	.	.
!	!	!LO:N:acc=#	!	!	!	!	!	!	!
2GG/	.	2Bn\	-di	.	.	2e\	-di	.	.
=13-	=13-	=13-	=13-	=13-	=13-	=13-	=13-	=13-	=13-
2C/	-di	2ryy	.	2G/	-di	4r	.	2cc\	-di
.	.	.	.	.	.	4f\	pec-	.	.
4r	.	4r	.	4r	.	4.d\	.	4r	.
4AA/	pec-	4c\	pec-	4F/	pec-	.	.	4cc\	pec-
.	.	.	.	.	.	8e\	-ca-	.	.
2BB-/	-ca-	2d\	-ca-	2F/	-ca-	2.f\	.	2b-\	-ca-
2FF/	-(ta)	2c\	-ta	2F/	.	.	.	2a\	-ta
.	.	.	.	.	.	4f\	ta	.	.
!	!	!	!	!LO:LB:g=original	!	!	!	!	!
=14-	=14-	=14-	=14-	=14-	=14-	=14-	=14-	=14-	=14-
1C	mun-	1c	mun-	2F/	-ta	2e\	mun-	1g	mun-
.	.	.	.	1G	mun-	2ryy	.	.	.
2ryy	.	2ryy	.	.	.	2ryy	.	2ryy	.
=15-	=15-	=15-	=15-	=15-	=15-	=15-	=15-	=15-	=15-
*M3/2	*	*M3/2	*	*M3/2	*	*M3/2	*	*M3/2	*
2FF/	-di	2c\	-di	2A/	-di	2f\	-di	2f/	-di
2D\	mi-	2c\	Mi-	2c\	mi-	4e\	Mi-	2e/	mi-
.	.	.	.	.	.	4d\	.	.	.
!	!	!LO:TX:a:t=P:problem=kreska pseudotaktowa	!	!	!	!	!	!	!
2F\	-ſe-	2A\	-ſe-	2A\	-ſe-	2c\	-ſe-	2f/	ſe-
=16-	=16-	=16-	=16-	=16-	=16-	=16-	=16-	=16-	=16-
2E\	-re-	2B-y\	-re-	2d\	-re-	1d	re-	1g	-re-
!	!	!LO:N:vis=1.	!	!	!	!	!	!	!
!	!	!LO:TX:a:t=P:problem=kreska pseudotaktowa	!	!	!	!	!	!	!
2E\	-re	1d	-re	2B-\	.	.	.	.	.
2E\	no-	.	.	2A/	-re	2d\	-re	2a\	-re
!LO:LB:g=original	!	!	!	!	!	!	!	!LO:LB:g=original	!
=17-	=17-	=17-	=17-	=17-	=17-	=17-	=17-	=17-	=17-
!	!	!LO:TX:a:t=P:problem=kreska pseudotaktowa	!	!	!	!	!	!	!
2G\	-bis	1.d	mi-	2.B-\	mi-	2B-/	mi-	1g	no-
*	*ij	*	*	*	*	*	*	*	*
2G\	mi-	.	.	.	.	2c\	-ſe-	.	.
.	.	.	.	4c\	-ſe-	.	.	.	.
2D/	-ſe-	.	.	2d\	-re-	2e\	-re-	2f/	.
!	!	!LO:LB:g=original	!	!	!	!	!	!	!
=18-	=18-	=18-	=18-	=18-	=18-	=18-	=18-	=18-	=18-
2E\	-re-	2G/	-ſe-	1c	-re	2g\	-re	1e	.
2F\	-re	2G/	-re-	.	.	2f\	no-	.	.
!	!	!	!	!LO:N:acc=#	!	!	!	!	!
!LO:TX:a:t=P:problem=kreska pseudotaktowa	!	!LO:TX:a:t=P:problem=kreska pseudotaktowa	!	!LO:TX:a:t=P:problem=# above	!	!	!	!	!
2G\	no-	2G/	-re	2Bn\	no-	2d\	.	2d/	.
!	!	!	!	!	!	!LO:LB:g=original	!	!	!
=19-	=19-	=19-	=19-	=19-	=19-	=19-	=19-	=19-	=19-
2C/	-bis	2G/	.	2c\	bis	2e\	-biſ	2c/	-bis
*	*Xij	*	*	*	*	*	*	*	*
2F\	a-	2r	.	2A/	a-	2c\	a-	2f/	a-
!LO:TX:a:t=P:problem=kreska pseudotaktowa	!	!	!	!	!	!	!	!	!
2D\	-gn(us)	2r	.	2G/	-gn(us)	2c\	-gn(us)	2g/	-gnus
=20-	=20-	=20-	=20-	=20-	=20-	=20-	=20-	=20-	=20-
4C/	De-	2c\	a-	2.F/	De-	1.f	De-	1a	De-
4D/	.	.	.	.	.	.	.	.	.
4E\	.	2c\	-gn(us)	.	.	.	.	.	.
4C/	.	.	.	4G/	.	.	.	.	.
2BB-/	i	2d\	De-	4A/	.	.	.	2f/	-i
.	.	.	.	4F/	i	.	.	.	.
=21-	=21-	=21-	=21-	=21-	=21-	=21-	=21-	=21-	=21-
*	*	*	*	*	*	*	*	*	*ij
1.FF	q(u)i	2.G/	.	2.G/	De-	1.e	-i	1cc	a-
.	.	4A/	.	4F/	.	.	.	.	.
.	.	2B-\	-i	4D/	.	.	.	2dd\	-gnus
.	.	.	.	4E/	.	.	.	.	.
=22-	=22-	=22-	=22-	=22-	=22-	=22-	=22-	=22-	=22-
*	*	*	*	*	*	*	*ij	*	*
[>2F\	tol-	2A\	q(u)i	1.F	-i	2f\	a-	1cc	De-
1F]	.	2A\	tol-	.	.	4f\	-gn(us)	.	.
.	.	.	.	.	.	4g\	.	.	.
.	.	2c\	-lis	.	.	2a\	De-	2f/	-i
*	*	*	*	*	*	*	*	*	*Xij
=23-	=23-	=23-	=23-	=23-	=23-	=23-	=23-	=23-	=23-
*	*	*	*	*^	*	*	*	*	*
2.E\	-liſ	1c	pec-	2G\	2ryy	q(u)i	2g\	-i	1g	q(u)i
*	*	*	*	*	*	*	*	*Xij	*	*
.	.	.	.	2c/	2c\	tol-	2g\	q(u)i	.	.
4E\	pec-	.	.	.	.	.	.	.	.	.
2F\	-ca-	2c\	-ca-	2A/	2ryy	-lis	2f\	tol-	2a\	tol-
*	*	*	*	*v	*v	*	*	*	*	*
!	!	!	!	!LO:LB:g=original	!	!	!	!	!
=24-	=24-	=24-	=24-	=24-	=24-	=24-	=24-	=24-	=24-
4BB-/	.	1d	-ta	2A/	pec-	2f\	-lis	[>2b-\	-lis
4C/	.	.	.	.	.	.	.	.	.
4D/	.	.	.	2A/	-ca-	2f\	pec-	2b-\]	.
4BB-/	.	.	.	.	.	.	.	.	.
2F\	-ta	2c\	mun-	2A/	-ta	2f\	-ca-	2a\	pec-
=25-	=25-	=25-	=25-	=25-	=25-	=25-	=25-	=25-	=25-
2BB-/	mun-	2d\	-di	1.F	mun-	2.f\	-ta	2.g/	-ca-
1C	.	1c	do-	.	.	.	.	.	.
.	.	.	.	.	.	4f\	mun-	4f/	-ta
.	.	.	.	.	.	2e\	.	2g/	mun-
=26-	=26-	=26-	=26-	=26-	=26-	=26-	=26-	=26-	=26-
!	!	!	!	!	!	!	!	!LO:N:vis=2.	!
2AA/	-di	2c\	-na	1.D	-di	2f\	-di	2a\	-di
!	!	!	!	!	!	!	!	!LO:TX:a:t=P:problem=tekst mało czytelny	!
2F\	do-	2c\	do-	.	.	2f\	do-	2cc\	no-
2F\	-na	2c\	-na	.	.	2f\	-na	2cc\	-bis
!LO:PB:g=original	!	!	!	!	!	!	!	!	!
=27-	=27-	=27-	=27-	=27-	=27-	=27-	=27-	=27-	=27-
*	*	*	*	*	*ij	*	*	*	*
1BB-	no-	1B-	no-	2F/	q(u)i	4f\	no-	1dd	do-
.	.	.	.	.	.	4e\	.	.	.
.	.	.	.	2B-y\	tol-	4f\	.	.	.
.	.	.	.	.	.	4g\	.	.	.
!	!	!	!	!	!	!LO:TX:a:t=P:problem=niejednoznaczny zapis nuty	!	!	!
2FF/	-bis	2A/	.	2G/	-lis	2a\	-bis	2cc\	-na
=28-	=28-	=28-	=28-	=28-	=28-	=28-	=28-	=28-	=28-
4GG/	do-	4B-\	.	2A/	pec-	2.g\	do-	2.b-\	no-
4AA/	.	4c\	.	.	.	.	.	.	.
4BB-/	.	4d\	.	2A/	-ca-	.	.	.	.
4C/	.	4e\	.	.	.	4g\	-na	4b-\	-bis
*	*	*custos:c	*	*	*	*	*	*	*
2D/	-na	2f\	.	2F/	-ta	2f\	no-	2a\	pa-
!	!	!LO:PB:g=original	!	!	!	!	!	!	!
=29-	=29-	=29-	=29-	=29-	=29-	=29-	=29-	=29-	=29-
2AA/	no-	2c\	-bis	1G	mun-	1f	-bis	2a\	.
2BB-/	-bis	2d\	pa-	.	.	.	.	1g	.
2C/	pa-	2c\	.	2c\	.	2e\	pa-	.	.
=30-	=30-	=30-	=30-	=30-	=30-	=30-	=30-	=30-	=30-
1.FF	-ce(m)	1.c	-ce(m)	1.F	-di	1.f	-ce(m)	1.f	-cem
*	*	*	*	*	*Xij	*	*	*	*
!	!	!	!	!	!	!	!	!LO:PB:g=original	!
=31-	=31-	=31-	=31-	=31-	=31-	=31-	=31-	=31-	=31-
2r	.	2r	.	2r	.	2r	.	2r	.
2F\	do-	2A/	do-	2F/	do-	2f\	do-	2cc\	Do-
2F\	-na	2A/	-na	2F/	-na	2f\	-na	2a\	-na
!	!	!	!	!	!	!LO:PB:g=original	!	!	!
=32-	=32-	=32-	=32-	=32-	=32-	=32-	=32-	=32-	=32-
[>2E-X\	no-	2B-\	no-	1A	no-	1c	no-	1b-	no-
2E-\]	.	2G/	-bis	.	.	.	.	.	.
*	*	*	*ij	*	*	*	*	*	*
2C/	-bis	2A/	do-	2c\	-bis	2e-\	-bis	2cc\	-bis
=33-	=33-	=33-	=33-	=33-	=33-	=33-	=33-	=33-	=33-
*	*	*	*	*	*ij	*	*	*	*
4BB-/	pa-	1B-	.	2.d\	do-	1d	do-	1dd	do-
4C/	.	.	.	.	.	.	.	.	.
4D\	.	.	.	.	.	.	.	.	.
4Eny\	.	.	.	4c\	-na	.	.	.	.
2F\	-[cem]	2A/	-na	2G/	no-	2c/	-na	2cc\	-na
*	*	*	*Xij	*	*	*	*	*	*
=34-	=34-	=34-	=34-	=34-	=34-	=34-	=34-	=34-	=34-
4D\	do-	2.d\	do-	1.G	-bis	2.f\	do-	2.ff\	do-
4E\	.	.	.	.	.	.	.	.	.
4F\	.	.	.	.	.	.	.	.	.
4D\	.	4d\	-na	.	.	4f\	-na	4ff\	-na
2E\	-na	2c\	no-	.	.	2eny\	no-	2ee\	no-
=35-	=35-	=35-	=35-	=35-	=35-	=35-	=35-	=35-	=35-
2F\	pa-	2c\	-bis	1A	do-	2e\	-bis	2.dd\	-bis
!	!	!LO:TX:a:t=P:problem=# above	!	!	!	!	!	!	!
!	!	!LO:N:acc=#	!	!	!	!LO:TX:a:t=P:problem=kreska pseudotaktowa	!	!	!
1G	.	2Bn\	pa-	.	.	1d	pa-	.	.
.	.	.	.	.	.	.	.	4cc\	pa-
!	!	!LO:TX:a:t=P:problem=kreska pseudotaktowa	!	!	!	!	!	!	!
.	.	2B\	-ce(m)	2A/	-na	.	.	2dd\	.
=36-	=36-	=36-	=36-	=36-	=36-	=36-	=36-	=36-	=36-
2C/	-ce(m)	2c\	.	1.F	no-	2e\	-c(em)	2cc\	-ce(m)
2F\	do-	2c\	do-	.	.	2f\	do-	2cc\	do-
!	!	!LO:TX:a:t=P:problem=kreska pseudotaktowa	!	!	!	!	!	!	!
2F\	-na	2c\	-na	.	.	2f\	-na	2cc\	-na
!LO:LB:g=original	!	!	!	!	!	!	!	!	!
=37-	=37-	=37-	=37-	=37-	=37-	=37-	=37-	=37-	=37-
1BB-	no-	1B-y	no-	1.D	-bis	4f\	no-	1dd	no-
*	*	*	*	*	*Xij	*	*	*	*
.	.	.	.	.	.	4e\	.	.	.
.	.	.	.	.	.	4f\	.	.	.
.	.	.	.	.	.	4g\	.	.	.
!	!	!LO:TX:a:t=P:problem=kreska pseudotaktowa	!	!	!	!LO:TX:a:t=P:problem=kreska pseudotaktowa	!	!	!
2FF/	-bis	2A/	-bis	.	.	2a\	-bis	2cc\	-bis
=38-	=38-	=38-	=38-	=38-	=38-	=38-	=38-	=38-	=38-
!	!	!	!	!	!	!	!	!LO:TX:a:t=P:problem=niejednoznaczny zapis łuku	!
4GG/	pa-	4B-\	do-	2F/	pa-	2.g\	do-	(>1b-	pa-
4AA/	.	4c\	.	.	.	.	.	.	.
4BB-/	.	4d\	.	2B-\	.	.	.	.	.
4C/	.	4e\	.	.	.	4g\	-na	.	.
2D/	.	2f\	-na	2G/	.	2f\	no-	1a\	.
!	!	!	!	!LO:PB:g=original	!	!	!	!	!
=39-	=39-	=39-	=39-	=39-	=39-	=39-	=39-	=39-	=39-
2AA/	.	2B-\	no-	2A/	-ce(m)	1f	-bis	.	.
2BB-/	.	2d\	-bis	2A/	do-	.	.	1g)	.
2C/	.	2c\	.	(<4A/	-na	2e\	pa-	.	.
.	.	.	.	4F/)	.	.	.	.	.
=40-	=40-	=40-	=40-	=40-	=40-	=40-	=40-	=40-	=40-
2FF/	ce(m)	1c	pa-	2G/	no-	2f\	-ce(m)	2f/	-ce(m)
2F\	do-	.	.	2A/	-bis	2f\	do-	2a\	do-
2F\	-na	2c\	-ce(m)	2G/	pa-	2f\	-na	2a\	-na
!	!	!LO:LB:g=original	!	!	!	!	!	!	!
=41-	=41-	=41-	=41-	=41-	=41-	=41-	=41-	=41-	=41-
2C/	pa-	2c\	do-	2G/	-ce(m)	2e\	no-	2g/	no-
!	!	!	!	!	!	!LO:TX:a:t=P:problem=kreska pseudotaktowa	!	!	!
2FF/	-ce(m)	2c\	-na	1G	do-	2e\	-bis	2f/	-bis
*	*ij	*	*	*	*	*	*	*	*
2C/	do-	2c\	pa-	.	.	4e\	do-	4g/	do-
.	.	.	.	.	.	4e\	-na	4g/	-na
!	!	!	!	!	!	!LO:LB:g=original	!	!LO:LB:g=original	!
=42-	=42-	=42-	=42-	=42-	=42-	=42-	=42-	=42-	=42-
2C/	-na	2c\	-ce(m)	2A/	-na	2e\	pa-	4a\	no-
.	.	.	.	.	.	.	.	4cc\	-bis
*	*	*	*ij	*	*	*	*	*	*
2GG/	pa-	2c\	do-	2A/	do-	2f\	.	2b-\	pa-
2C/	-ce(m)	2c\	-na	2A/	-na	2e\	-ce(m)	2cc\	-ce(m)
*	*Xij	*	*Xij	*	*	*	*	*	*
=43-	=43-	=43-	=43-	=43-	=43-	=43-	=43-	=43-	=43-
*	*	*	*	*	*	*	*	*	*ij
1FF	do-	2c\	do-	2A/	no-	2f\	pa-	1a	no-
.	.	2c\	-na	2A/	-bis	2f\	-ce(m)	.	.
2FF/	-na	2c\	no-	2A/	pa-	2f\	.	2a\	-bis
=44-	=44-	=44-	=44-	=44-	=44-	=44-	=44-	=44-	=44-
*col	*	*col	*	*col	*	*	*	*	*
1BB-	no-	1B-	.	1F	.	1f	no-	1b-	pa-
1FF/	-bis	1c\	bis	1F/	.	2f\	-bis	1a\	.
=45-	=45-	=45-	=45-	=45-	=45-	=45-	=45-	=45-	=45-
.	.	.	.	.	.	1f	.	.	.
1C	pa-	1c	pa-	1G	.	.	.	1g	.
.	.	.	.	.	.	2e\	pa-	.	.
*Xcol	*	*Xcol	*	*Xcol	*	*	*	*	*
=46-	=46-	=46-	=46-	=46-	=46-	=46-	=46-	=46-	=46-
0FF;>	-ce(m)	0c;>	-ce(m)	0F;>	-ce(m)	0f;>	-ce(m)	0f;>	-ce(m)
*	*	*	*	*	*	*	*	*	*Xij
==	==	==	==	==	==	==	==	==	==
*-	*-	*-	*-	*-	*-	*-	*-	*-	*-
!!!system-decoration: [(s1,s2,s3,s4,s5)]
!!!RDF**kern: > = above
!!!RDF**kern: < = below
!!!EED: Antoni Szymański
!!!EEV: 2021-08-03
!!!ENC: Marcin Jachim
!!!END: 2021-07-06
